X:15409
T:Sicilian Dance,bass part. JNu.41
M:6/8
Q:100
S:James Nuttall MS,c1830?,Rossendale,East Lancs.
O:England
A:East Lancashire
Z:Chris Partington
K:F
"thirdo,read as bass clef"
d3d3|d3d2d|d3d2G|A2AD3|!
d2dd2d|D2DD2D|E2EE2E|A3A3::!
a3a3|a3d3|A3A3|A3d3|!
g3f3|e3c3|G2GA2A|D3D3::!
d3A3|D2DD3|d3A3|D2DD3|!
D6|D6|D3D3|A6::!
a3a3|d2dd3|G2GA2A|d2DD2d|!
dfa dfa|dfad3|a3A3|D6|]


